X: 9942
T: Dever The Dancer
R: slip jig
M: 9/8
K: Eminor
|:BEE BEF G2 A|BEE BAG FGA|BEE BEF G2 A|Bdd ABG FED:|
|:ded cAF G2 A|Bdd def gfe|deg c/B/AF G2 A|Bdd ABG FED:|

